X:1
T:Wer Weiss, Wie Nahe (Bronner), 98.98.88
T:Wer Weiss, Wie Nahe (Bronner), 98.98.88
T:Georg Bronner, 1715
T:Public Domain Courtesy of the Cyber Hymnal™
C:Georg Bronner, 1715
Z:Public Domain
Z:Courtesy of the Cyber Hymnal™
%%score ( 1 2 ) ( 3 4 )
L:1/8
Q:1/4=108
M:2/4
K:Bb
V:1 treble 
V:2 treble 
V:3 bass 
V:4 bass 
V:1
 [DF]2 | [B,B]2 [B,F]2 | [B,G]2 [B,G]2 | [B,F]2 E2 | [B,D]4 | !fermata![F,B,]2 [B,D]2 | %6
 [A,E]2 [B,D]2 | [A,C]2 [A,F]2 | [DG]2 [CG]2 | !fermata![A,F]2 [DF]2 | [B,B]2 [B,F]2 | %11
 [B,G]2 [B,G]2 | [B,F]2 E2 | [B,D]4 | !fermata![F,B,]2 [B,D]2 | [A,E]2 [B,D]2 | [A,C]2 [A,F]2 | %17
 [DG]2 [CG]2 | !fermata![A,F]2 [CF]2 | [DB]2 [Fc]2 | [Fd]2 [DB]2 | [Ge]2 [Fd]2 | %22
 !fermata![Fc]2 [Fd]2 | [FB]2 [EG]2 | [DF]2 [DB]2 | [CB]2 [CA]2 | !fermata![DB]2 |] %27
V:2
 x2 | x4 | x4 | x2 G,A, | x4 | x4 | x4 | x4 | x4 | x4 | x4 | x4 | x2 (G,A,) | x4 | x4 | x4 | x4 | %17
 x4 | x4 | x4 | x4 | x4 | x4 | x4 | x4 | x4 | x2 |] %27
V:3
 [B,,F,]2 | [D,F,]2 [B,,D,]2 | [G,,D,]2 [E,,E,]2 | [B,,D,]2 [C,E,]2 | [B,,F,]4 | %5
 !fermata![B,,D,]2 [B,,F,]2 | [C,E,]2 [B,,F,]2 | F,2 [D,F,]2 | [B,,F,]2 [C,=E,]2 | %9
 !fermata![F,,F,]2 [B,,F,]2 | [D,F,]2 [B,,D,]2 | [G,,D,]2 [E,,E,]2 | [B,,D,]2 [C,E,]2 | [B,,F,]4 | %14
 !fermata![B,,D,]2 [B,,F,]2 | [C,E,]2 [B,,F,]2 | F,2 [D,F,]2 | [B,,F,]2 [C,=E,]2 | %18
 !fermata![F,,F,]2 [A,C]2 | [G,B,]2 [F,A,]2 | [B,,B,]2 [G,B,]2 | [E,B,]2 [B,,B,]2 | %22
 !fermata![F,A,]2 [B,,B,]2 | [D,B,]2 [E,B,]2 | B,2 [G,B,]2 | [E,G,]2 F,2 | !fermata![B,,F,]2 |] %27
V:4
 x2 | x4 | x4 | x4 | x4 | x4 | x4 | F,2 x2 | x4 | x4 | x4 | x4 | x4 | x4 | x4 | x4 | F,2 x2 | x4 | %18
 x4 | x4 | x4 | x4 | x4 | x4 | B,2 x2 | x2 F,2 | x2 |] %27

